apps/service-portal/src/assets/images/coffee.svg

<svg width="161" height="238" viewBox="0 0 161 238" fill="none" xmlns="http://www.w3.org/2000/svg">
<path d="M130.107 187.975C130.107 187.975 130.107 200.164 130.107 210.356C130.107 220.547 117.207 232.706 117.207 232.706H111.494H94.1625H88.4489C88.4489 232.706 75.5496 220.547 75.5496 210.356C75.5496 200.164 75.5496 187.975 75.5496 187.975H92.3851H113.264H130.107ZM42.0313 141.259C36.5161 141.259 32.0535 136.789 32.0535 131.282C32.0535 129.939 32.3205 128.665 32.8011 127.498C30.4745 127.292 28.064 127.59 25.951 128.238C25.0814 128.505 24.1812 128.657 23.2811 128.711C24.4406 108.336 5.72095 110.228 5.72095 110.228C5.72095 110.228 3.48588 122.646 14.3713 127.437C7.93313 127.307 1.31947 130.641 2.99768 140.763C4.69114 151.008 11.7396 156.378 16.1716 157.675C17.5294 158.072 18.9864 157.668 19.9476 156.638C21.4198 155.051 23.9295 155.051 25.4094 156.638C26.3705 157.668 27.8275 158.072 29.1853 157.675C33.5487 156.401 40.6811 151.168 42.2754 141.244C42.1914 141.252 42.1152 141.259 42.0313 141.259ZM22.3886 38.7971C16.5149 53.4204 20.123 70.767 32.6485 81.7516C45.0444 92.6142 62.4672 94.0101 76.137 86.5421L22.3886 38.7971Z" fill="url(#paint0_linear)"/>
<path d="M133.166 36.6002C135.685 36.6002 137.727 34.5578 137.727 32.0385C137.727 29.5191 135.685 27.4768 133.166 27.4768C130.646 27.4768 128.604 29.5191 128.604 32.0385C128.604 34.5578 130.646 36.6002 133.166 36.6002Z" fill="#0061FF"/>
<path d="M4.56167 237.268C7.08101 237.268 9.12335 235.226 9.12335 232.706C9.12335 230.187 7.08101 228.145 4.56167 228.145C2.04233 228.145 0 230.187 0 232.706C0 235.226 2.04233 237.268 4.56167 237.268Z" fill="#0061FF"/>
<path d="M102.828 197.662H73.1623C72.5292 197.662 72.0181 197.151 72.0181 196.518C72.0181 195.885 72.5292 195.374 73.1623 195.374H102.828C103.462 195.374 103.973 195.885 103.973 196.518C103.973 197.151 103.462 197.662 102.828 197.662Z" fill="#6A2EA0"/>
<path d="M136.057 218.266C129.748 218.266 124.607 213.132 124.607 206.816C124.607 200.5 129.741 195.366 136.057 195.366C142.373 195.366 147.507 200.5 147.507 206.816C147.507 213.132 142.365 218.266 136.057 218.266ZM136.057 197.662C131.007 197.662 126.895 201.774 126.895 206.824C126.895 211.874 131.007 215.985 136.057 215.985C141.107 215.985 145.218 211.874 145.218 206.824C145.218 201.774 141.107 197.662 136.057 197.662Z" fill="#6A2EA0"/>
<path d="M28.1174 158.98C26.7901 158.98 25.5009 158.43 24.5627 157.423C24.0668 156.889 23.3956 156.6 22.6709 156.6C21.9462 156.6 21.2749 156.889 20.7791 157.423C19.5128 158.781 17.621 159.3 15.8436 158.781C10.2598 157.141 3.50117 150.871 1.86111 140.954C0.793156 134.508 3.02059 131.022 5.07258 129.23C9.19182 125.629 15.5461 125.858 19.7264 127.147C21.6487 127.742 23.6854 127.742 25.6154 127.147C29.7117 125.888 35.944 125.637 40.0174 129.108C42.1076 130.885 44.4037 134.379 43.4883 140.931C41.9092 152.282 33.6479 157.576 29.4981 158.789C29.0404 158.911 28.5751 158.98 28.1174 158.98ZM22.6709 154.311C24.0211 154.311 25.3179 154.876 26.2409 155.86C26.9122 156.577 27.9115 156.859 28.8574 156.577C32.5113 155.509 39.8039 150.795 41.2227 140.603C41.8406 136.171 40.9328 132.884 38.5376 130.839C35.1735 127.971 29.8414 128.23 26.2943 129.329C23.9295 130.061 21.4275 130.061 19.0551 129.329C15.1495 128.123 9.77157 128.154 6.58297 130.946C4.23348 132.998 3.40963 136.24 4.12669 140.573C5.82778 150.871 12.9602 155.539 16.492 156.577C17.4379 156.851 18.4372 156.577 19.1085 155.86C20.0239 154.876 21.3207 154.311 22.6709 154.311Z" fill="#6A2EA0"/>
<path d="M57.6995 86.7786C38.9646 86.7786 23.7158 71.5374 23.7158 52.7949C23.7158 34.0523 38.957 18.8112 57.6995 18.8112C76.442 18.8112 91.6832 34.0523 91.6832 52.7949C91.6832 53.428 91.1721 53.9391 90.539 53.9391C89.9059 53.9391 89.3948 53.428 89.3948 52.7949C89.3948 35.3186 75.1758 21.0996 57.6995 21.0996C40.2233 21.0996 26.0043 35.3186 26.0043 52.7949C26.0043 70.2711 40.2233 84.4901 57.6995 84.4901C66.8381 84.4901 75.5343 80.5387 81.5606 73.658C81.9725 73.1851 82.6972 73.1317 83.1778 73.5512C83.6507 73.9708 83.7041 74.6878 83.2846 75.1684C76.8235 82.5449 67.5018 86.7786 57.6995 86.7786Z" fill="#6A2EA0"/>
<path d="M71.7202 66.8918C71.4532 66.8918 71.1862 66.8003 70.9726 66.6172L55.945 53.6645C55.6933 53.4509 55.5483 53.1305 55.5483 52.7949V12.5179C55.5483 11.8847 56.0594 11.3737 56.6926 11.3737C57.3257 11.3737 57.8368 11.8847 57.8368 12.5179V52.2685L72.4677 64.878C72.9483 65.2899 73.0017 66.0146 72.5898 66.4951C72.3609 66.7545 72.0482 66.8918 71.7202 66.8918Z" fill="#6A2EA0"/>
<path d="M148.315 233.851H41.1769C40.5438 233.851 40.0327 233.34 40.0327 232.706C40.0327 232.073 40.5438 231.562 41.1769 231.562H148.315C148.948 231.562 149.459 232.073 149.459 232.706C149.459 233.34 148.948 233.851 148.315 233.851Z" fill="#6A2EA0"/>
<path d="M84.3525 159.811C83.7193 159.811 83.2083 159.3 83.2083 158.667V135.958C83.2083 123.76 93.1326 113.836 105.33 113.836H147.644C153.563 113.836 158.377 109.022 158.377 103.103C158.377 97.1835 153.563 92.3701 147.644 92.3701H134.79C120.449 92.3701 108.778 80.6989 108.778 66.3578V43.7554C108.778 20.8861 90.1728 2.28846 67.311 2.28846H56.6926C56.0594 2.28846 55.5483 1.77737 55.5483 1.14423C55.5483 0.51109 56.0594 0 56.6926 0H67.311C91.4391 0 111.066 19.6274 111.066 43.7554V66.3578C111.066 79.4402 121.708 90.0816 134.79 90.0816H147.651C154.83 90.0816 160.673 95.9248 160.673 103.103C160.673 110.281 154.83 116.124 147.651 116.124H105.338C94.3988 116.124 85.5043 125.019 85.5043 135.958V158.667C85.4967 159.3 84.9856 159.811 84.3525 159.811Z" fill="#6A2EA0"/>
<path d="M22.6711 129.878C22.0379 129.878 21.5269 129.367 21.5269 128.734V117.078C21.5269 116.445 22.0379 115.934 22.6711 115.934C23.3042 115.934 23.8153 116.445 23.8153 117.078V128.734C23.8153 129.367 23.3042 129.878 22.6711 129.878Z" fill="#6A2EA0"/>
<path d="M102.828 181.17C102.195 181.17 101.684 180.659 101.684 180.026V150.642C101.684 150.009 102.195 149.498 102.828 149.498C103.461 149.498 103.973 150.009 103.973 150.642V180.026C103.973 180.659 103.461 181.17 102.828 181.17Z" fill="#6A2EA0"/>
<defs>
<linearGradient id="paint0_linear" x1="33.4573" y1="200.954" x2="100.906" y2="84.1293" gradientUnits="userSpaceOnUse">
<stop stop-color="#FF4C84"/>
<stop offset="0.1191" stop-color="#F94F88"/>
<stop offset="0.2741" stop-color="#E95594"/>
<stop offset="0.4489" stop-color="#CE5FA6"/>
<stop offset="0.6382" stop-color="#A96DC0"/>
<stop offset="0.8369" stop-color="#797FE0"/>
<stop offset="1" stop-color="#4C90FF"/>
</linearGradient>
</defs>
</svg>

<svg width="161" height="238" fill="none" xmlns="http://www.w3.org/2000/svg"><path d="M130.107 187.975v22.381c0 10.191-12.9 22.35-12.9 22.35H88.449s-12.9-12.159-12.9-22.35v-22.381H130.108Zm-88.076-46.716c-5.515 0-9.977-4.47-9.977-9.977 0-1.343.267-2.617.747-3.784-2.327-.206-4.737.092-6.85.74-.87.267-1.77.419-2.67.473 1.16-20.375-17.56-18.483-17.56-18.483s-2.235 12.418 8.65 17.209c-6.438-.13-13.052 3.204-11.373 13.326 1.693 10.245 8.742 15.615 13.174 16.912a3.729 3.729 0 0 0 3.776-1.037 3.728 3.728 0 0 1 5.461 0 3.728 3.728 0 0 0 3.776 1.037c4.364-1.274 11.496-6.507 13.09-16.431a2.5 2.5 0 0 1-.244.015ZM22.39 38.797c-5.874 14.623-2.266 31.97 10.26 42.955 12.395 10.862 29.818 12.258 43.488 4.79L22.389 38.797Z" fill="url(#a)"/><path d="M133.166 36.6a4.561 4.561 0 1 0 0-9.123 4.561 4.561 0 0 0 0 9.123ZM4.562 237.268a4.562 4.562 0 1 0 0-9.123 4.562 4.562 0 0 0 0 9.123Z" fill="#0061FF"/><path d="M102.828 197.662H73.162a1.143 1.143 0 0 1-1.144-1.144c0-.633.511-1.144 1.144-1.144h29.666c.634 0 1.145.511 1.145 1.144 0 .633-.511 1.144-1.145 1.144ZM136.057 218.266c-6.309 0-11.45-5.134-11.45-11.45 0-6.316 5.134-11.45 11.45-11.45 6.316 0 11.45 5.134 11.45 11.45 0 6.316-5.142 11.45-11.45 11.45Zm0-20.604c-5.05 0-9.162 4.112-9.162 9.162 0 5.05 4.112 9.161 9.162 9.161 5.05 0 9.161-4.111 9.161-9.161s-4.111-9.162-9.161-9.162ZM28.117 158.98a4.856 4.856 0 0 1-3.554-1.557 2.551 2.551 0 0 0-1.892-.823 2.55 2.55 0 0 0-1.892.823 4.855 4.855 0 0 1-4.935 1.358c-5.584-1.64-12.343-7.91-13.983-17.827-1.068-6.446 1.16-9.932 3.212-11.724 4.119-3.601 10.473-3.372 14.653-2.083a9.937 9.937 0 0 0 5.89 0c4.096-1.259 10.328-1.51 14.401 1.961 2.09 1.777 4.387 5.271 3.471 11.823-1.579 11.351-9.84 16.645-13.99 17.858a5.381 5.381 0 0 1-1.38.191Zm-5.446-4.669c1.35 0 2.647.565 3.57 1.549.671.717 1.67.999 2.616.717 3.654-1.068 10.947-5.782 12.366-15.974.618-4.432-.29-7.719-2.685-9.764-3.364-2.868-8.697-2.609-12.244-1.51a12.207 12.207 0 0 1-7.239 0c-3.905-1.206-9.283-1.175-12.472 1.617-2.35 2.052-3.173 5.294-2.456 9.627 1.7 10.298 8.833 14.966 12.365 16.004.946.274 1.945 0 2.616-.717a4.877 4.877 0 0 1 3.563-1.549ZM57.7 86.779c-18.735 0-33.984-15.242-33.984-33.984 0-18.743 15.241-33.984 33.983-33.984 18.743 0 33.984 15.241 33.984 33.984 0 .633-.51 1.144-1.144 1.144a1.143 1.143 0 0 1-1.144-1.144c0-17.476-14.22-31.695-31.695-31.695-17.477 0-31.696 14.219-31.696 31.695S40.224 84.49 57.7 84.49a31.726 31.726 0 0 0 23.862-10.832 1.146 1.146 0 0 1 1.724 1.51A34.012 34.012 0 0 1 57.7 86.778Z" fill="#6A2EA0"/><path d="M71.72 66.892c-.267 0-.534-.092-.747-.275L55.945 53.664a1.141 1.141 0 0 1-.397-.87V12.519c0-.633.511-1.144 1.145-1.144.633 0 1.144.51 1.144 1.144v39.75l14.63 12.61c.481.412.535 1.137.123 1.617a1.15 1.15 0 0 1-.87.397ZM148.315 233.851H41.177a1.143 1.143 0 0 1-1.144-1.145c0-.633.51-1.144 1.144-1.144h107.138c.633 0 1.144.511 1.144 1.144 0 .634-.511 1.145-1.144 1.145Z" fill="#6A2EA0"/><path d="M84.353 159.811a1.143 1.143 0 0 1-1.145-1.144v-22.709c0-12.198 9.925-22.122 22.122-22.122h42.314c5.919 0 10.733-4.814 10.733-10.733 0-5.92-4.814-10.733-10.733-10.733H134.79c-14.341 0-26.012-11.671-26.012-26.012V43.755c0-22.869-18.605-41.467-41.467-41.467H56.693a1.143 1.143 0 0 1-1.145-1.144C55.548.511 56.06 0 56.693 0H67.31c24.128 0 43.755 19.627 43.755 43.755v22.603c0 13.082 10.642 23.724 23.724 23.724h12.861c7.179 0 13.022 5.843 13.022 13.021 0 7.178-5.843 13.021-13.022 13.021h-42.313c-10.94 0-19.834 8.895-19.834 19.834v22.709a1.154 1.154 0 0 1-1.151 1.144ZM22.671 129.878a1.143 1.143 0 0 1-1.144-1.144v-11.656c0-.633.51-1.144 1.144-1.144.633 0 1.144.511 1.144 1.144v11.656c0 .633-.51 1.144-1.144 1.144ZM102.828 181.17a1.142 1.142 0 0 1-1.144-1.144v-29.384c0-.633.511-1.144 1.144-1.144.633 0 1.145.511 1.145 1.144v29.384c0 .633-.512 1.144-1.145 1.144Z" fill="#6A2EA0"/><defs><linearGradient id="a" x1="33.457" y1="200.954" x2="100.906" y2="84.129" gradientUnits="userSpaceOnUse"><stop stop-color="#FF4C84"/><stop offset=".119" stop-color="#F94F88"/><stop offset=".274" stop-color="#E95594"/><stop offset=".449" stop-color="#CE5FA6"/><stop offset=".638" stop-color="#A96DC0"/><stop offset=".837" stop-color="#797FE0"/><stop offset="1" stop-color="#4C90FF"/></linearGradient></defs></svg>
